X: 19580
T: James O'Byrne's
R: jig
M: 6/8
K: Fmajor
|:F^EF cFF|dFF cAG|F^EF cFF|dcA GEC|
F^EF cFF|dFF cde|fed cAG|AdB cAG:|
|:faf agf|ece gec|fef afd|dcA FAc|
faf agf|ec/d/e gec|afa ged|c2 d cAG:|

